X:1
T:James Gibb editions
T:Psalm 52 (Becker) - Schütz
%%score [ ( 1 2 ) ( 3 4 ) ]
L:1/8
Q:1/4=100
M:2/2
K:F
V:1 treble nm="Soprano Alto"
V:2 treble 
V:3 bass nm="Tenor Bass"
V:4 bass 
V:1
"^Cornelius Becker\n(1561-1604)""^Heinrich Schütz\n(1585-1672)""^Psalm 52, SWV 149" F4 B4 | %1
w: |
 F2 D4 F2 | G2 A2 B4 | A4 c4 | B2 A4 F2 | G4 F4 :|[M:2/2] F4 G4 | B2 A4 d2 | c2 A2 G4 | G4 c4 | %10
w: |||||so scharf|kein Scher- mes-|ser be- reit,|als dei-|
 B2 A4 G2 | F2 G2 A4 | c4 d4 | c2 B4 _e2 | (d2 cB c4) | B8 |] %16
w: ne fal- sche|Zun- ge schneid't|mit Lü-|gen und Ver-|leum\- * * *|den.|
V:2
 D4 F4 | D2 B,4 F,2 | B,2 F2 F4 | F4 F4 | D2 C4 D2 | E4 F4 :|[M:2/2] D4 D4 | G2 ^F4 G2 | %8
w: ~Was treibst|denn du, Ty-|rann, so hoch,|daß du|kannst Schad'n an-|rich- ten,|||
w: der from-|me Gott le-|bet ja noch,|der sieht|dein mörd- lich|Dich- ten,|||
 G2 ^F2 G4 | G4 F4 | F2 F4 D2 | D2 D2 F4 | F4 F4 | F2 D4 G2 | F8 | F8 |] %16
w: ||||||||
w: ||||||||
V:3
 B,4 D4 | B,2 F,4 B,2 | G,2 C2 D4 | C4 A,4 | F,2 A,4 A,2 | C4 C4 :|[M:2/2] B,4 B,4 | D2 D4 D2 | %8
w: ||||||||
 _E2 D2 D4 | C4 C4 | D2 C4 B,2 | %11
w: |||
"^2. Du hast der Gottesfurcht und Ehr\ndich ganz böslich begeben, \nwas andern Leuten bringt Beschwer, \ndanach tut dein Herz streben, \nstatt Gutes du das Böse liebst \ndein giftig Zunge hart betrübt \nmanch fromm unschuldig Herze.\n\n3. Dafür wird Gottes Zorn und Räch \nzu seiner Zeit dich finden, \nsein Grimm wird dich mit Ungemach \nhinreißen in dein Sünden, \ndich ausrotten mit Stumpf und Stil, \ndein G'dächtnis er vertilgen will \nrecht aus dem Land des Lebens." A,2 B,2 C4 | %12
w: |
 A,4 B,4 | %13
w: |
 A,2"^4. Der G'rechte der solchs schauet an,\nfurcht Gott und spricht mit Lachen:\nSieh da, ist das der kühne Mann, \nder sich so bös könnt machen? \nWollt nicht Gott halten für sein Trost,\nverließ sich auf sein Reichtum groß\nund tat mächtigen Schaden.\n\n5. Ich werd in Gottes Hause sein\ngleichwie ein Ölbaum grüne, \ndein Gnad gibt Trost dem Herzen mein\nund macht mich keck und kühne, \nich harr dein, dank dir ewiglich, \ndu machst's wohl recht, verderbest nichts, \ndas ist der Gläubgen Freude." G,2 B,2 (B,2- | %14
w: * und Ver- leum\-|
 B,2 A,G, A,4) | B,8 |] %16
w: |den.|
V:4
 B,,4 B,,4 | B,,2 B,,4 D,2 | _E,2 F,2 B,,4 | F,4 F,4 | B,,2 F,4 D,2 | C,4 F,4 :|[M:2/2] B,,4 G,,4 | %7
 G,,2 D,4 B,,2 | C,2 D,2 G,,4 | C,4 A,,4 | B,,2 F,4 G,2 | D,2 G,2 F,4 | F,4 B,4 | F,2 G,4 _E,2 | %14
 (B,,4 F,4) | B,,8 |] %16

